X:5
T:Jack in the Box. Ru1.005
B:Rutherford's Country Dances Vol 1, 1756
Z:village music project, Steve Mansfield July 2015
M:2/4
L:1/8
W:Foot it all four and right Hands across half round .|
W:Foot it and Left Hands across back again :| The first
W:Man Sett to the 2d Woman & turn .|. First Wo. does the
W:same with the 2d man :|. Cross over half Figure
W:right Hand & Left :|
Q:2/4=60
K:G
|:G/A/B/c/ dB | e2 dB | cBAG | A/G/F/E/ D2 |
G/A/B/c/ dB | e2 dg | f2 e/d/^c/e/ | A^c d2 :|
|: d/c/B/c/ dB | c/B/A/B/ cA | B/A/G/A/ BG | A/G/F/E/ FD |
G/A/B/c/ dg | e2 dc | BA/G/ AG/F/ | G4 :|
BBcc | ^ccdd | ecgB | A/G/F/E/ D2 |
